X:1
T: Springfield
C:Abraham Mackintosh
R:Strathspey
Q: 128
K:Bb
M:4/4
L:1/16
|:d2|BG3 G3B DG3 G3B|cF3 F3A cF3 c3A|B3A B3F DG3 B3d|cA3 d3c BG3 G3d|
BG3 G3B DG3 G3B|cF3 F3A cF3 c3A|db3 c3a Bg3 A3^f|ge3 d3c BG3-G2d2|
g3a ba3 gd3 b3d|ca3 B3g AF3 c3A|g3a b3a gd3 b3d|c3A dedc BB3 B3d|
g3a b3a gd3 b3d|ca3 Bg3 AF3 c3A|((3B2d2B2) ((3G2B2G2) ((3D2G2D2) ((3B,2D2B,2) |C3A, D3C B,G,3 G,2:|
